X:1
T:NSF Nessun dorma
T:NSF Nessun dorma
T:Arr: Claudio Chini
T:Giacomo Puccini
C:Giacomo Puccini
%%score [ 1 2 3 4 ]
L:1/8
Q:1/4=60
M:4/4
K:Eb
V:1 treble nm="S"
V:2 treble nm="A"
V:3 treble-8 nm="T"
V:4 bass nm="B"
V:1
"^Andante sostenuto" z4 z2 B3/2 B/ | B2 B2 z2 B,3/2 B,/ | B,2 B,2 z4 | z2 z B B B B3/2 A/ | %4
w: Nes- sun|dor- ma! Nes- sun|dor- ma!|Tu pu- re\_o prin- ci-|
 G2 G2 (3G G G _G3/2 D/ | E2 E2 d2 d3/2 c/ | B2 B B B B B3/2 A/ | G2 G3 G _G3/2 D/ | %8
w: pes- sa, nel- la tua fred- da|stan- za guar- di le|stel- le che tre- ma- no d'a-|mo- re e di spe-|
 E2 E2- E z z2 | z B c d c B c3/2 =A/ | G4 z c d e | d c d3/2 B/ =A2 B2 | c c d e f4 | %13
w: ran- za! _|Ma\_il mio mi- ste- ro\_è chiu- so\_in|me, il no- me|mio nes- sun sa- prà! No,|no, sul- la tua boc-|
 f2 f3/2 d/ d4- | d d d3/2 B/ F4 | F2 !fermata!c3/2 =A/ B2- B z | z4 z4 | z B B3/2 A/ G G G B | %18
w: ca lo di- rò.|_ quan- do la lu-|ce splen- de- rà! _||Ed il mio ba- cio scio- glie-|
 d3 c B2 B2- | B G _G3/2 D/ E2 E2 | z4 z4 | z4 z4 | z8 | z4 z c d e | f2 f2 f f f3/2 d/ | %25
w: rà\_il si- len- zio|_ che ti fa mi- a!||||Di le- gua\_o|not- te! Tra- mon- ta- te,|
 d2 d2 d d d3/2 B/ | F2 F F F F c3/2 =A/ | B6 G3/2 B/ | e6 B3/2 !fermata!g/ | f8 | z4 z (cde | %31
w: stel- le! Tra- mon- ta- te,|stel- le! Al- l'al- ba vin- ce-|rò! Vin- ce-|rò! vin- ce-|rò!|oh _ _|
 dc d>B =A2 B2 | c2) d e f4- | f4 z4 |] %34
w: _ _ _ _ _ _|* vin- ce- rò!|rò!|
V:2
 z2 z (B, E2 D2) | z2 z (B, E2 D2) | z2 z (B, FG B2- | B3) (E FG D2) | z2 z (B, E2 D2) | %5
w: Oh _ _|oh _ _|oh _ _ _|_ oh _ _ _|oh _ _|
 z2 z (B, D4) | z2 z (B, FG D2) | z2 z (B, FG D2) | z2 z (B, FGBG | F) F F F F F F3/2 F/ | %10
w: oh _|oh _ _ _|oh _ _ _|oh _ _ _ _|_ Ma\_il mio mi- ste- ro\_è chiu- so\_in|
 G4 z G G G | G G G3/2 G/ F2 F2 | F F F F z B, C D | C B, C3/2 =A,/ G, G, A, B, | %14
w: me, il no- me|mio nes- sun sa- prà! No,|no, sul- la tua Ma\_il mio mi-|ste- ro\_è chiu- so\_in me, il no- me|
 =A, G, B,3/2 G,/ F, F, B, A, | G, F, !fermata!=A,3/2 A,/ G, (G,B,F | GB,FG B4- | %17
w: mio nes- sun sa- prà! quan- do la|lu- ce splen- de- ra! Oh _ _|_ _ _ _ _|
 BG _G2) z (B,F=G | _G4) z2 z (B, | FG B2) z2 z (B, | FGBG F) F F F | F F F3/2 F/ G4- | %22
w: * * * oh _ _|_ oh|_ _ _ oh|_ _ _ _ _ Il no- me|suo nes- sun sa- prà...|
 G G G G G G G3/2 G/ | =A2 B2 c2 z2 | z B, C D C B, C3/2 =A,/ | G, G, =A, B, A, G, B,3/2 G,/ | %26
w: _ E noi do- vrem ahi- mè mo-|rir, mo- rir!|Il no- me suo nes- sun sa-|prà... E noi do- vrem ahi- mè, mo-|
 F, (F,B,) =A, G, F, A,3/2 A,/ | G, (G,B,E G) (B,EG | B4- BE) G3/2 !fermata!B/ | B8- | B4 z CDE | %31
w: rir, ah _ Al- l'al- ba vin- ce|ro! oh _ _ _ oh _ _|_ _ _ vin- ce-|rò!|_ oh _ _|
 DC D>B, =A,2 B,2 | C2 D E F4- | F4 z4 |] %34
w: _ _ _ _ _ _|* vin- ce- rò!|rò!|
V:3
 (EF G4 A2) | (EF G4 _G2) | (EF G2 B3) (E | FG B4 A2) | (EF G4 A2) | (EF G2 A4) | (EF G4 _G2) | %7
w: Oh _ _ _|oh _ _ _|oh _ _ _ oh|_ _ _ _|oh _ _ _|oh _ _ _|oh _ _ _|
 (EF G4 A2) | (EF G2 B2 e2) | d B c d c B c3/2 =A/ | G4 z c d e | d c d3/2 B/ =A2 B2 | c c d e f4 | %13
w: oh _ _ _|oh _ _ _ _|_ Ma\_il mio mi- ste- ro\_è chiu- so\_in|me, il no- me|mio nes- sun sa- prà! No,|no, sul- la tua boc-|
 f2 f3/2 d/ d4- | d d d3/2 B/ F4 | F2 !fermata!c3/2 =A/ B2 B2- | B4- B (GBf | ge d2 e2) (B2 | %18
w: ca lo di- rò|_ quan- do la lu-|ce splen- de- rà! Oh|Oh _ oh _ _|_ _ _ _ oh|
 A4) (EF G2- | G2 A2) (EF G2 | B2 e2 d) B c d | c B c3/2 =A/ G4 | z c d e d c d3/2 B/ | %23
w: _ _ _ _||* * * Il no- me|suo nes- sun sa- prà!...|E noi do- vrem ahi- mè mo-|
 =A2 B2 c c d e | f2 f2 f f f3/2 d/ | d2 d2 d d d3/2 B/ | F2 F F F F c3/2 =A/ | (B8- | %28
w: rir, mo- rir! Di le- gua\_o|not- te! Tra- mon- ta- te,|stel- le! Tra- mon- ta- te,|stel- le! Al- l'al- ba vin- ce-|rò!|
 BEGB eG) B3/2 !fermata!e/ | d (Bcd cB c>=A | G4- G4- | G4 F2 G2 | =A2) f e d4- | d4 z4 |] %34
w: _ _ _ _ _ _ vin- ce-|rò! oh _ _ _ _ _ _|_ _||* vin- ce- rò!|rò!|
V:4
 E,6 (_C,2 | E,6) (_C,2 | E,8- | E,6) (_C,2 | E,6) (_C,2 | E,4) z (._C,._G,,.C, | E,6) z (_C, | %7
w: Oh oh|_ oh|_|* oh|_ oh|_ oh _ _|_ oh|
 E,6) (_C,2 | E,8 | B,,) B,, B,, B,, B,, B,, D,3/2 D,/ | (E,2 D,2 C,) C, C, C, | %11
w: _ oh|_|* Ma\_il mio mi- ste- ro\_è chiu- so\_in|me, _ _ il no- me|
 C, C, E,3/2 E,/ F,2 G,2 | =A, A, F, E, D,4 | D,2 D,3/2 D,/ C,4- | C, C, E,3/2 E,/ F,4 | %15
w: mio nes- sun sa- prà! No,|no, sul- la tua boc-|ca lo di- rò|_ quan- do la lu-|
 F,2 !fermata!F,3/2 F,/ E,4- | E,4 E,4- | E,2 (_C,2 E,4) | z (_C,_G,,) z E,4- | E,2 (_C,2 E,4- | %20
w: ce splen- de- rà!|rà! Oh|Oh oh _|oh _ oh|oh oh _|
 E,4 B,,) B,, B,, B,, | B,, B,, D,3/2 D,/ (E,2 D,2 | C,) C, C, C, C, C, E,3/2 E,/ | %23
w: _ _ Il no- me|suo nes- sun sa- prà!... _|_ E noi do- vrem ahi- mè mo-|
 F,2 G,2 =A, A, F, E, | D,2 D,2 D, D, D,3/2 D,/ | C,2 C,2 C, C, E,3/2 E,/ | %26
w: rir, mo- rir! Di le- gua\_o|not- te! Tra- mon- ta- te,|stel- le! Tra- mon- ta- te,|
 F,2 F, F, F, F, F,3/2 F,/ | E,8 | !fermata!E,8 | B,,6 (D,2 | E,2 D,2 C,4-) | C,2 (E,2 F,4-) | %32
w: stel- le! Al- l'al- ba vin- ce-|rò!|oh|oh oh|_ _ _|* oh _|
 F,2 F, E, B,,4- | B,,4 z4 |] %34
w: _ vin- ce- rò!|rò!|

